assets/digikeyelectronics/original.svg

<svg fill="#c00" viewBox="0 0 24 24" xmlns="http://www.w3.org/2000/svg"><path d="m12.246.221a11.786 11.786 0 0 1 11.644 10.197c.912 6.593-3.944 12.711-10.558 13.297-.454.04-.912.063-1.369.064l-10.705.003v-3.749h-1.258v-16.046h1.222v-3.769zm5.654 19.202-8.26-7.422 8.25-7.422h-6.938l-5.337 4.782v-4.763h-5.055v14.803h5.105v-4.724l5.289 4.746z"/></svg>

<svg xmlns="http://www.w3.org/2000/svg" fill="#c00" viewBox="0 0 24 24"><path d="M12.246.221A11.786 11.786 0 0 1 23.89 10.418c.912 6.593-3.944 12.711-10.558 13.297q-.682.061-1.369.064l-10.705.003v-3.749H0V3.987h1.222V.218zM17.9 19.423l-8.26-7.422 8.25-7.422h-6.938L5.615 9.361V4.598H.56v14.803h5.105v-4.724l5.289 4.746z"/></svg>
